X: 32
T:Hunting the Hare Jig
M:6/8
L:1/8
Q:1/8=120
K:G
g2 G Bcd|eag fed|g2 G Bcd|eaf g3:||
bag bag|bag bag|afg afg|ac'b agf|g2 G Bcd|eag fed|g2 G Bcd|
eaf g3||
